X:438
T:Liberty Bell, The 
C:Joe Buchanan's Scottish Tome - Page 462.0-463.0
I:462 0
C:J. Sousa
R:March
Z:Carl Allison
L:1/8
M:6/8
K:F
W:Intro
%%vskip 0
f2 e d2 _d | c2 =B _B2 A | (GAB) A2 G | C2 z z2 c |
%%vskip 25
.A2 .A A^GA | .f2 .c c2 A | B2 .B .B2 c | d3- d2 B |
.G2 .G G^FG | e2 .d .d2 B | A2 .A .A2 B | c3- c2 c |
.A2 .A A^GA | a2 .f .f2 c | =B .g g .g | g3- g2 f |
.e2 .g g^fg | .d2 .g g^fg | .c2 =B c2 B | c2 z c z :|
%%vskip 25
zB | A^GA d2 c | A3 F3 | D3 G3 | F3- F2 F |
GAB e2 d | c3 f3 | e3 d3 | c3- c2 c |
d2 d d^cd | e3 e3 | f2 f gfg | a3- a2 a |
g2 f d2 B  | A3 F3 | G3 E3 | F3- F3 :|
[K:Bb]F | D3 E3 | =E F | d2 d d2 ^c | d3- d2 F |
D3 E3 | =E3 F3 | e2 e e2 d | e3- e2 d |
c =B | c2 F =E2 F | d3 c3 | d2 F =E2 F |
A3 c3 | B2 c G2 B | A2 B G2 A | F2 G E2 F |
D3 E3 | =E F | d2 d d2 ^c | d3- d2 F |
D3 E3 | E3 F3 | e2 e e2 d | e3- e2 d |
c3 =B3 | c2 F =E2 F | d3 ^c3 | d2 F =E2 F |
G3 e33 | d2 Bc2A | B6 | B2 z B z | 

